X:1
T:James Gibb editions
T:Where the mourner weeping - Barnby
%%score [ ( 1 2 ) ( 3 4 ) ]
L:1/8
Q:1/4=92
M:4/4
K:D
V:1 treble nm="Midi_1"
V:2 treble 
V:3 bass nm="Midi_1"
V:4 bass 
V:1
"^65. 65""^Where the mourner weeping""^Joseph Barnby\n(1838-96)" B2 B2 A2 F2 | (D2 E2) F4 || %2
 F2 F2 B2 d2 | c8 ||[M:4/4] e2 d2 c2 B2 | (^A2 F2) B4 || G2 FE F2 ^A2 | B8 || B4 B4 |] %9
V:2
 B2 B2 A2 F2 | (D2 E2) F4 || C2 C2 F2 ^E2 | F8 ||[M:4/4] G2 F2 G2 ^G2 | F4 F4 || E2 DC D2 E2 | %7
 D8 || E4 ^D4 |] %9
V:3
 B,2 B,2 A,2 F,2 | (D,2 E,2) F,4 || ^A,2 A,2 B,2 ^G,2 | ^A,8 ||[M:4/4] ^A,2 B,2 E2 D2 | %5
 (C2 ^A,2) B,4 || B,2 B,2 B,2 C2 | B,8 || G,4 F,4 |] %9
V:4
 B,2 B,2 A,2 F,2 | (D,2 E,2) F,4 || F,2 F,2 D,2 B,,2 | F,8 ||[M:4/4] C,2 D,2 E,2 ^E,2 | %5
 (F,2 E,2) D,4 || E,2 F,G, F,2 F,2 | B,,8 || E,4 B,,4 |] %9

